build/img/npm.svg

<svg width="64" height="64" viewBox="0 0 32 32" fill="none" xmlns="http://www.w3.org/2000/svg"><path d="M2 10.555h28v9.335H16v1.556H9.778v-1.557H2v-9.334zm1.556 7.779h3.111v-4.668h1.555v4.667h1.556v-6.222H3.556v6.223zm7.778-6.223v7.779h3.111v-1.556h3.111v-6.223h-6.222zm3.111 1.556H16v3.112h-1.556l.001-3.112zm4.667-1.556v6.223h3.111v-4.668h1.556v4.667h1.556v-4.667h1.556v4.667h1.556v-6.222h-9.335z" fill="#CB3837"/></svg>

<svg width="64" height="64" viewBox="0 0 32 32" fill="none" xmlns="http://www.w3.org/2000/svg">
<path d="M2 10.555H30V19.89H16V21.446H9.778V19.889H2V10.555ZM3.556 18.334H6.667V13.666H8.222V18.333H9.778V12.111H3.556V18.334ZM11.334 12.111V19.89H14.445V18.334H17.556V12.111H11.334ZM14.445 13.667H16V16.779H14.444L14.445 13.667ZM19.112 12.111V18.334H22.223V13.666H23.779V18.333H25.335V13.666H26.891V18.333H28.447V12.111H19.112Z" fill="#CB3837"/>
</svg>
